X:193
T:Ble Rwt Ti'n Mynd? / Hen Ladi Mowr Benfelen
M:2/4
L:1/8
Q:380
C:Trad. arr. Ceri Rhys Matthews
R:Ronde
N:Breton dance arrangement. Repeat each tune as required
K:G
EB B2 | EB B2 | AB cA | BA GF | EB B2 | EB B2 | AB cA|
B2 B2 :|| A2 A2 | FA A2 | G2 FE | F2 GF | E2 ED |
E2 EF | G2 A2 | B2- B2 | c2 Ac | B2 EF | G2 F2 | E2-E2|
||:E/F/ | G2 F2 | ED EF | G2 F2 | E3 :|| E/F/ | G2 F2 |
EF GE | DE Dc | B2- B2 | B2 BA | GA B2 | B2 BA |
GA B2 | B2 EF | G3 A/G/ | F3 G/F/ | E3 ||
